X:1
T:Title
%%score { ( 1 4 ) | ( 2 3 ) }
L:1/8
Q:1/4=120
M:6/4
K:C
V:1 treble nm="Piano"
V:4 treble 
V:2 bass 
V:3 bass 
V:1
 B6 | ^c2 c2 c2 z4 z2 |!p! ^c4 x2 |!p! ^d2- d2 d2 d2 ^f2 e2 d2 | ^c6 (e2 e2 ^d2 B2) | ^G6 | _A6 | %7
 _e2 e2 e2 z4 z2 | z4 z2 _e4 x2 | f2- f2 f2 f2 _a2 _g2 x2 | =e6 (f2 f2 _d2 _B2) | F4 | F4 _B6 x2 | %13
 _d2 _B4 (=A2 B2 d2 B2) | _e4 c2 (_E2 F2 _A2 x2 F2) | f4 f2 _e2 _d2 x2 | G4 G2 x6 | G4 _e2 _G4 e2 | %18
 _e12 | e12 | f6 | f2 x2 f2 x2 f2 x2 f4 f2 | z2 x2 f2 x2 f2 x2 f2- f2 f2 f2 | f12 |!p! _f6 | %25
 (_e2 x2 _d2) x2 c4 d2 | c2 _B4 x8 | %27
V:2
 B,6 | ^G,2 G,2 G,2 x6 | ^G,6 | B,2 B,2 [^G,B,]2 B,2 x6 | x14 | x6 | _A,4 x2 | _A,2 A,2 A,2 z4 z2 | %8
 z4 z2 _A,6 | _D2 D2 D2 D2 x6 | x14 | x4 | F,12 | F,12 x2 | F,2 F,2 F,2 _A,2 x4 A,2 x2 | _B,12 | %16
 B,6 _B,4 B,2 | _B,6 B,4 x2 | =A,6 _A,6 |!ped! [A,_C]12 | _B,6 | %21
 (_E,2 F,2 x2 _A,2 x2 F,2) C4 _B,2 | (_E,2!ped! F,2 x2 _A,2 x2 F,2) C4 x4 | C12 | z2 z2 _E,2 | %25
 (_E,2 _F,2 _A,2 F,2) !tenuto!F,4!ped! F,2 | z2 z2 _D,2 (_E,2 _F,2 A,2 F,2) | %27
V:3
 B,,6 | E,2 E,2 E,2 z4 z2 | B,,6 | ^G,2- [G,B,]2 G,2 G,2 x6 | x14 | x6 | _A,,6 | x2 D2 D2 x6 | %8
 x6 _A,,6 | _A,2- A,2 A,2 A,2 z4 z2 | x14 | x4 | x12 | x14 | x16 | F,12 | F,4 x2 F,4 F,2 | %17
 F,6 C,6 | C,4 A,2 _C,4 _A,2 | x12 | _B,6 | x18 | x20 | x12 | x6 | x14 | x14 | %27
V:4
 x6 | E2 E2 .E2 x6 | E6 | E2 E2 E2 E2 x6 | x14 | x6 | F4 x2 | F2 F2 .F2 x6 | x6 .F6 | %9
 _A2 A2 A2 A2 x6 | x14 | x4 | x12 | x14 | x16 | [c-_d]4 c2 _e2 d2 x2 | x12 | G6 _G6 | F12 | F12 | %20
 x6 | d2 x2 _d2 x2 d2 x6 d2 | x8 d2 x2 d2 d2 d2 d2 | .[c_d]4 d4 =d2 x2 | x6 | x14 | x14 | %27

